icons/solid/rewind.svg

<svg width="24" height="24" viewBox="0 0 24 24" fill="none" xmlns="http://www.w3.org/2000/svg">
<path fill-rule="evenodd" clip-rule="evenodd" d="M2.93334 10.8L9.6 5.80001C10.5889 5.05837 12 5.76394 12 7.00001V10L17.6 5.80001C18.5889 5.05837 20 5.76394 20 7.00001V17C20 18.2361 18.5889 18.9417 17.6 18.2L12 14V17C12 18.2361 10.5889 18.9416 9.6 18.2L2.93334 13.2C2.13333 12.6 2.13334 11.4 2.93334 10.8Z" fill="currentColor"/>
</svg>

<svg width="24" height="24" fill="none" xmlns="http://www.w3.org/2000/svg"><path fill-rule="evenodd" clip-rule="evenodd" d="M2.933 10.8l6.667-5c.989-.742 2.4-.036 2.4 1.2v3l5.6-4.2c.989-.742 2.4-.036 2.4 1.2v10c0 1.236-1.411 1.942-2.4 1.2L12 14v3c0 1.236-1.411 1.942-2.4 1.2l-6.667-5c-.8-.6-.8-1.8 0-2.4z" fill="currentColor"/></svg>
